public/static/img/crypto/XTZ.svg

<svg width="48" height="48" viewBox="0 0 48 48" fill="none" xmlns="http://www.w3.org/2000/svg">
<g clip-path="url(#clip0_1150_13360)">
<path d="M24.0004 0C37.2546 0 48.0004 10.7453 48.0004 24C48.0004 37.2547 37.2546 48 24.0004 48C10.7452 48 0.000366227 37.2542 0.000366227 24C-0.000113773 10.7453 10.7452 0 24.0004 0Z" fill="#445EDD"/>
<path d="M19.5 15V9H16.5V15H12.75V18H16.5V25.5C16.5 26.6583 16.8353 27.7918 17.4654 28.7637C18.0955 29.7357 18.9935 30.5044 20.0509 30.9772C21.1083 31.45 22.28 31.6066 23.4244 31.4282C24.5689 31.2497 25.6372 30.7438 26.5005 29.9715L24.4995 27.7365C24.0678 28.1224 23.5336 28.3752 22.9615 28.4643C22.3893 28.5534 21.8035 28.4749 21.275 28.2385C20.7464 28.002 20.2975 27.6176 19.9826 27.1317C19.6676 26.6458 19.5 26.0791 19.5 25.5V18H29.4375L23.25 23.9625V26.25H24.75C29.3505 26.25 32.25 29.52 32.25 32.25C32.25 35.0745 29.8095 37.5 26.625 37.5C23.8905 37.5 21.6855 35.697 21.135 33.4005L18.2175 34.0995C19.11 37.815 22.5765 40.5 26.625 40.5C31.311 40.5 35.25 36.882 35.25 32.25C35.25 28.4025 32.199 24.852 27.879 23.667L34.5 17.2875V15H19.5Z" fill="white"/>
</g>
<defs>
<clipPath id="clip0_1150_13360">
<rect width="48" height="48" fill="white"/>
</clipPath>
</defs>
</svg>

<svg width="48" height="48" fill="none" xmlns="http://www.w3.org/2000/svg"><g clip-path="url(#a)"><path d="M24 0c13.255 0 24 10.745 24 24S37.255 48 24 48 0 37.254 0 24C0 10.745 10.745 0 24 0Z" fill="#445EDD"/><path d="M19.5 15V9h-3v6h-3.75v3h3.75v7.5a6 6 0 0 0 10 4.471l-2-2.235a3 3 0 0 1-5-2.236V18h9.938l-6.188 5.962v2.288h1.5c4.6 0 7.5 3.27 7.5 6 0 2.825-2.44 5.25-5.625 5.25-2.735 0-4.94-1.803-5.49-4.1l-2.918.7c.893 3.715 4.36 6.4 8.408 6.4 4.686 0 8.625-3.618 8.625-8.25 0-3.848-3.051-7.398-7.371-8.583l6.621-6.38V15h-15Z" fill="#fff"/></g><defs><clipPath id="a"><path fill="#fff" d="M0 0h48v48H0z"/></clipPath></defs></svg>
